svg/fluentui-system-icons/ic_fluent_table_insert_column_28_regular.svg

<svg width="28" height="28" viewBox="0 0 28 28" fill="none" xmlns="http://www.w3.org/2000/svg">
<path d="M4.5 3.75C4.5 3.33579 4.16421 3 3.75 3C3.33579 3 3 3.33579 3 3.75V24.25C3 24.6642 3.33579 25 3.75 25C4.16421 25 4.5 24.6642 4.5 24.25V3.75ZM25 3.75C25 3.33579 24.6642 3 24.25 3C23.8358 3 23.5 3.33579 23.5 3.75V24.25C23.5 24.6642 23.8358 25 24.25 25C24.6642 25 25 24.6642 25 24.25V3.75ZM11.75 3C10.2312 3 9 4.23122 9 5.75V22.25C9 23.7688 10.2312 25 11.75 25H16.25C17.7688 25 19 23.7688 19 22.25V5.75C19 4.23122 17.7688 3 16.25 3H11.75ZM10.5 5.75C10.5 5.05964 11.0596 4.5 11.75 4.5H16.25C16.9404 4.5 17.5 5.05964 17.5 5.75V10H10.5V5.75ZM10.5 11.5H17.5V16.5H10.5V11.5ZM10.5 18H17.5V22.25C17.5 22.9404 16.9404 23.5 16.25 23.5H11.75C11.0596 23.5 10.5 22.9404 10.5 22.25V18Z" fill="#212121"/>
</svg>

<svg xmlns="http://www.w3.org/2000/svg" width="28" height="28"><path d="M4.5 3.75a.75.75 0 0 0-1.5 0v20.5a.75.75 0 0 0 1.5 0V3.75Zm20.5 0a.75.75 0 0 0-1.5 0v20.5a.75.75 0 0 0 1.5 0V3.75ZM11.75 3A2.75 2.75 0 0 0 9 5.75v16.5A2.75 2.75 0 0 0 11.75 25h4.5A2.75 2.75 0 0 0 19 22.25V5.75A2.75 2.75 0 0 0 16.25 3h-4.5ZM10.5 5.75c0-.69.56-1.25 1.25-1.25h4.5c.69 0 1.25.56 1.25 1.25V10h-7V5.75Zm0 5.75h7v5h-7v-5Zm0 6.5h7v4.25c0 .69-.56 1.25-1.25 1.25h-4.5c-.69 0-1.25-.56-1.25-1.25V18Z"/></svg>
